public/svgs/spectrum/relation.svg

<svg width="1em" height="1em" viewBox="0 0 30 30" fill="current" xmlns="http://www.w3.org/2000/svg">
    <path
        d="M21.8787 3.73187C22.9475 2.76974 24.6962 2.76593 25.8025 3.66324C26.5275 4.24662 26.9688 5.16808 27 6.1048V6.21791C26.9825 7.21691 26.46 8.15616 25.6862 8.75225C24.87 9.33945 23.7725 9.50721 22.835 9.1399C22.5888 9.06491 22.2725 8.88189 22.0638 9.13228C21.615 9.56314 21.1937 10.0245 20.7463 10.4579C20.5938 10.5901 20.5037 10.7731 20.4163 10.9523C20.5662 11.2764 20.7987 11.5459 21.01 11.8293C21.8438 13.0698 22.0462 14.6636 21.7925 16.1214C21.5187 17.4953 20.61 18.6163 19.6012 19.5175C19.705 19.9826 20.005 20.3601 20.2213 20.7745C20.4037 21.0643 20.5237 21.4036 20.7725 21.6438C21.3225 21.6934 21.9 21.593 22.4263 21.8192C23.7312 22.273 24.6588 23.652 24.5462 25.0589C24.4762 26.6578 23.0287 27.9924 21.47 28H21.3463C20.1513 27.9441 18.9812 27.1878 18.5575 26.0274C18.0425 24.8111 18.3837 23.3075 19.3737 22.4471C18.9987 21.7976 18.6425 21.1367 18.2525 20.4987C18.0788 20.1504 17.6638 20.322 17.375 20.3601C15.4088 20.7313 13.3075 19.8759 12.1125 18.2541C11.6713 17.6517 11.355 16.9577 11.1712 16.2307C11.0925 16.0159 11.0437 15.688 10.7563 15.6893C10.045 15.6486 9.33 15.6791 8.61625 15.6727C8.3075 15.6333 8.085 15.9079 8.00375 16.1799C7.7575 16.884 7.18375 17.4051 6.5725 17.7864C5.4775 18.3926 4.00875 18.216 3.08875 17.3568C2.4125 16.7683 2.0375 15.8761 2 14.9801V14.8568C2.03625 13.6621 2.80625 12.5652 3.855 12.0606C4.6675 11.7352 5.61875 11.6908 6.41625 12.0911C7.18375 12.3949 7.7075 13.1016 8.05625 13.8324C8.195 14.1603 8.6 14.07 8.88 14.0853C9.5825 14.0599 10.29 14.131 10.9888 14.037C11.21 13.5477 11.2463 12.9897 11.52 12.5233C12.2775 10.8888 13.8575 9.67371 15.615 9.39791C16.675 9.21997 17.7675 9.4246 18.7488 9.84784C19.1187 10.008 19.345 9.59237 19.5825 9.3852C20.0713 8.83741 20.6675 8.37731 21.0875 7.77232C21.0775 7.38468 20.8212 7.05676 20.7913 6.67038C20.6337 5.59513 21.0312 4.41439 21.8787 3.73187Z"
        fill="current" />
</svg>

<svg xmlns="http://www.w3.org/2000/svg" width="1em" height="1em" fill="current" viewBox="0 0 30 30"><path d="M21.879 3.732c1.069-.962 2.817-.966 3.923-.069.726.584 1.167 1.505 1.198 2.442v.113c-.017.999-.54 1.938-1.314 2.534-.816.587-1.913.755-2.851.388-.246-.075-.562-.258-.771-.008-.449.431-.87.893-1.318 1.326-.152.132-.242.315-.33.494.15.324.383.594.594.877.834 1.24 1.036 2.835.782 4.292-.273 1.374-1.182 2.495-2.19 3.396.103.466.403.843.62 1.258.182.29.302.629.55.869.55.05 1.128-.051 1.654.175 1.305.454 2.233 1.833 2.12 3.24-.07 1.599-1.517 2.933-3.076 2.941h-.124c-1.195-.056-2.365-.812-2.788-1.973-.515-1.216-.174-2.72.816-3.58-.375-.65-.732-1.31-1.121-1.948-.174-.349-.59-.177-.878-.139-1.966.371-4.068-.484-5.262-2.106a5.9 5.9 0 0 1-.942-2.023c-.079-.215-.127-.543-.415-.542-.711-.04-1.426-.01-2.14-.016-.309-.04-.531.235-.612.507-.246.704-.82 1.225-1.431 1.606-1.096.607-2.564.43-3.484-.43-.676-.588-1.051-1.48-1.089-2.376v-.123c.036-1.195.806-2.292 1.855-2.796.813-.326 1.764-.37 2.561.03.768.304 1.291 1.01 1.64 1.741.139.328.544.238.824.253.702-.025 1.41.046 2.109-.048.221-.49.257-1.047.531-1.514.758-1.634 2.338-2.85 4.095-3.125 1.06-.178 2.152.027 3.134.45.37.16.596-.256.834-.463.488-.548 1.085-1.008 1.505-1.613-.01-.387-.267-.715-.297-1.102-.157-1.075.24-2.256 1.088-2.938"/></svg>
